X: 100
T: 100. Durch Adams Fall ist ganz verderbt
N: Derived from chor100.krn
C: Johann Sebastian Bach
L: 1/4
M: C
K: Bb
G | GGFG | ED!fermata!CG/A/ | =BcGA | BA!fermata!G :|]  
B [I:setbarnb 5]| BB/_A/ G/F/ E/F/ | GF!fermata!EG | GGFE/D/ | D2!fermata!CG |
 GFG=A | B/A/G!fermata!Fc | dcG/A/B | AGA2 | !fermata!G3 |]  
